actions/48/bookmark-new.svg

<?xml version="1.0" encoding="UTF-8" standalone="no"?>
<svg
   xmlns:dc="http://purl.org/dc/elements/1.1/"
   xmlns:cc="http://creativecommons.org/ns#"
   xmlns:rdf="http://www.w3.org/1999/02/22-rdf-syntax-ns#"
   xmlns:svg="http://www.w3.org/2000/svg"
   xmlns="http://www.w3.org/2000/svg"
   xmlns:xlink="http://www.w3.org/1999/xlink"
   id="svg3880"
   height="48"
   width="48"
   version="1.1">
  <defs
     id="defs3882">
    <linearGradient
       id="linearGradient4332">
      <stop
         id="stop4334"
         style="stop-color:#ffffff;stop-opacity:1"
         offset="0" />
      <stop
         id="stop4336"
         style="stop-color:#ffffff;stop-opacity:0.23529412"
         offset="0.13943033" />
      <stop
         id="stop4338"
         style="stop-color:#ffffff;stop-opacity:0.15686275"
         offset="0.67927718" />
      <stop
         id="stop4340"
         style="stop-color:#ffffff;stop-opacity:0.39215687"
         offset="1" />
    </linearGradient>
    <linearGradient
       id="linearGradient8265-821-176-38-919-66-249">
      <stop
         offset="0"
         style="stop-color:#ffffff;stop-opacity:0.27450982"
         id="stop2687" />
      <stop
         offset="1"
         style="stop-color:#ffffff;stop-opacity:0"
         id="stop2689" />
    </linearGradient>
    <linearGradient
       id="linearGradient3846">
      <stop
         offset="0"
         style="stop-color:#fff3cb;stop-opacity:1"
         id="stop3848" />
      <stop
         offset="0.26238"
         style="stop-color:#fdde76;stop-opacity:1"
         id="stop3850" />
      <stop
         offset="0.66093999"
         style="stop-color:#f9c440;stop-opacity:1"
         id="stop3852" />
      <stop
         offset="1"
         style="stop-color:#e48b20;stop-opacity:1"
         id="stop3854" />
    </linearGradient>
    <linearGradient
       id="linearGradient8838">
      <stop
         offset="0"
         style="stop-color:#000000;stop-opacity:1"
         id="stop8840" />
      <stop
         offset="1"
         style="stop-color:#000000;stop-opacity:0"
         id="stop8842" />
    </linearGradient>
    <linearGradient
       gradientTransform="translate(2.9799125,-3.1216548)"
       gradientUnits="userSpaceOnUse"
       xlink:href="#linearGradient8265-821-176-38-919-66-249"
       id="linearGradient3038"
       y2="33.95525"
       x2="15.214532"
       y1="22.292103"
       x1="11.566265" />
    <linearGradient
       gradientUnits="userSpaceOnUse"
       xlink:href="#linearGradient4332"
       id="linearGradient3041"
       y2="36.324982"
       x2="29.646643"
       y1="16.237288"
       x1="29.646643" />
    <radialGradient
       gradientTransform="matrix(0,2.6540647,-3.1628087,0,97.182609,-26.675837)"
       gradientUnits="userSpaceOnUse"
       xlink:href="#linearGradient3846"
       id="radialGradient3044"
       fy="25.625349"
       fx="13.138569"
       r="13.931416"
       cy="25.625349"
       cx="13.138569" />
    <radialGradient
       gradientTransform="matrix(2.1647059,0,0,0.84705771,-111.56471,35.082353)"
       gradientUnits="userSpaceOnUse"
       xlink:href="#linearGradient8838"
       id="radialGradient3049"
       fy="4.625"
       fx="62.625"
       r="10.625"
       cy="4.625"
       cx="62.625" />
    <radialGradient
       gradientTransform="matrix(0,0.95936489,-1.0436697,0,87.757589,-35.865792)"
       gradientUnits="userSpaceOnUse"
       xlink:href="#linearGradient3242-7-3-8-0-4-58-06"
       id="radialGradient3343"
       fy="48.744953"
       fx="65.59787"
       r="31.000002"
       cy="48.744953"
       cx="65.59787" />
    <linearGradient
       id="linearGradient3242-7-3-8-0-4-58-06">
      <stop
         id="stop3244-5-8-5-6-4-3-8"
         style="stop-color:#cdf87e;stop-opacity:1"
         offset="0" />
      <stop
         id="stop3246-9-5-1-5-3-0-7"
         style="stop-color:#a2e34f;stop-opacity:1"
         offset="0.26238" />
      <stop
         id="stop3248-7-2-0-7-5-35-9"
         style="stop-color:#68b723;stop-opacity:1"
         offset="0.66093999" />
      <stop
         id="stop3250-8-2-8-5-6-40-4"
         style="stop-color:#1d7e0d;stop-opacity:1"
         offset="1" />
    </linearGradient>
    <linearGradient
       gradientTransform="matrix(0.70448868,0,0,0.59520312,21.241407,23.219131)"
       gradientUnits="userSpaceOnUse"
       xlink:href="#linearGradient4154"
       id="linearGradient3030-3"
       y2="36.594009"
       x2="24.138529"
       y1="9.712431"
       x1="24.138529" />
    <linearGradient
       id="linearGradient4154">
      <stop
         offset="0"
         style="stop-color:#ffffff;stop-opacity:1"
         id="stop4156" />
      <stop
         offset="0"
         style="stop-color:#ffffff;stop-opacity:0.23529412"
         id="stop4158" />
      <stop
         offset="1"
         style="stop-color:#ffffff;stop-opacity:0.15686275"
         id="stop4160" />
      <stop
         offset="1"
         style="stop-color:#ffffff;stop-opacity:0.39215687"
         id="stop4162" />
    </linearGradient>
    <linearGradient
       gradientTransform="matrix(0.60015241,0,0,0.69748032,23.556108,20.861165)"
       gradientUnits="userSpaceOnUse"
       xlink:href="#linearGradient4154"
       id="linearGradient3030-1"
       y2="26.006231"
       x2="24.138529"
       y1="20.271303"
       x1="24.138529" />
  </defs>
  <metadata
     id="metadata3885">
    <rdf:RDF>
      <cc:Work
         rdf:about="">
        <dc:format>image/svg+xml</dc:format>
        <dc:type
           rdf:resource="http://purl.org/dc/dcmitype/StillImage" />
        <dc:title></dc:title>
      </cc:Work>
    </rdf:RDF>
  </metadata>
  <path
     style="opacity:0.3;fill:url(#radialGradient3049);fill-opacity:1;fill-rule:evenodd;stroke:none;stroke-width:0.99999988;marker:none;visibility:visible;display:inline;overflow:visible"
     id="path8836"
     d="m 47,39 c 0,4.970563 -10.297453,9 -23,9 -12.702548,0 -23,-4.029437 -23,-9 0,-4.970563 10.297452,-9 23,-9 12.702547,0 23,4.029437 23,9 l 0,0 z" />
  <path
     style="fill:url(#radialGradient3044);fill-opacity:1;fill-rule:nonzero;stroke:none;stroke-width:0.9922713;stroke-linecap:butt;stroke-linejoin:round;stroke-miterlimit:4;stroke-opacity:1;stroke-dasharray:none;stroke-dashoffset:0;marker:none;visibility:visible;display:inline;overflow:visible"
     id="path1307"
     d="m 23.999999,1.4961347 c 1.518797,0 6.415369,12.2754723 7.644103,13.1714173 1.228732,0.895944 14.374596,1.776317 14.843931,3.225986 0.469334,1.449669 -9.650283,9.916699 -10.119617,11.366368 -0.469334,1.449669 2.758685,14.269241 1.529951,15.165186 -1.228733,0.895944 -12.379571,-6.146615 -13.89837,-6.146615 -1.518797,0 -12.669635,7.042559 -13.898369,6.146615 C 8.8728956,43.529147 12.100914,30.709574 11.63158,29.259906 11.162246,27.810237 1.0426298,19.343205 1.5119642,17.893536 1.9812985,16.443869 15.127162,15.563496 16.355896,14.667552 17.584628,13.771607 22.481202,1.4961347 23.999999,1.4961347 z" />
  <path
     style="opacity:0.8;fill:none;stroke:url(#linearGradient3041);stroke-width:0.99999994;stroke-linecap:butt;stroke-linejoin:round;stroke-miterlimit:4;stroke-opacity:1;stroke-dasharray:none;stroke-dashoffset:0;marker:none;visibility:visible;display:inline;overflow:visible"
     id="path1309"
     d="m 24,2.5 c 2.255601,4.3171106 4.478429,8.952433 6.73403,13.269542 4.843973,0.789864 10.26201,1.380836 14.771263,2.50542 -3.449934,3.457984 -6.875961,7.131147 -10.325895,10.589132 0.738138,4.805274 1.300453,9.696699 2.038592,14.501973 C 32.830213,41.18611 28.355003,39.093584 23.967226,36.913625 19.579447,39.093584 15.19167,41.273542 10.803892,43.453499 11.542029,38.648225 11.929163,33.581617 12.6673,28.776343 9.2173666,25.318358 5.9355586,21.692246 2.4856257,18.234262 7.329597,17.444398 12.356449,16.559406 17.20042,15.769542 19.456021,11.452433 21.744398,6.8171106 24,2.5 z" />
  <path
     style="opacity:0.8;fill:url(#linearGradient3038);fill-opacity:1;fill-rule:nonzero;stroke:none;stroke-width:1;marker:none;visibility:visible;display:inline;overflow:visible;enable-background:accumulate"
     id="path3382"
     d="m 24.023909,2.0218291 c 0,0 4.502337,7.4701031 7.020932,13.3173589 4.843973,0.789864 10.309827,1.404745 14.914715,2.720597 0,0 -2.463879,2.468624 -3.480641,3.487759 0,0 -31.782299,5.712288 -31.782299,5.712288 C 7.7999341,24.283482 4.5120994,21.39468 1.9615429,18.048297 5.5144527,16.97153 12.093455,16.105144 16.937426,15.31528 20.29282,7.4118887 24.023909,2.0218291 24.023909,2.0218291 z" />
  <path
     style="display:inline;overflow:visible;visibility:visible;fill:none;fill-opacity:1;fill-rule:evenodd;stroke:#956500;stroke-width:1;stroke-linecap:butt;stroke-linejoin:round;stroke-miterlimit:4;stroke-dasharray:none;stroke-dashoffset:0;stroke-opacity:1;marker:none;color:#000000;clip-rule:nonzero;opacity:0.5;isolation:auto;mix-blend-mode:normal;color-interpolation:sRGB;color-interpolation-filters:linearRGB;solid-color:#000000;solid-opacity:1;filter-blend-mode:normal;filter-gaussianBlur-deviation:0;color-rendering:auto;image-rendering:auto;shape-rendering:auto;text-rendering:auto;enable-background:accumulate"
     id="path1307-1"
     d="m 23.999999,1.4961347 c 1.518797,0 6.415369,12.2754723 7.644103,13.1714173 1.228732,0.895944 14.374596,1.776317 14.843931,3.225986 0.469334,1.449669 -9.650283,9.916699 -10.119617,11.366368 -0.469334,1.449669 2.758685,14.269241 1.529951,15.165186 -1.228733,0.895944 -12.379571,-6.146615 -13.89837,-6.146615 -1.518797,0 -12.669635,7.042559 -13.898369,6.146615 C 8.8728956,43.529147 12.100914,30.709574 11.63158,29.259906 11.162246,27.810237 1.0426298,19.343205 1.5119642,17.893536 1.9812985,16.443869 15.127162,15.563496 16.355896,14.667552 17.584628,13.771607 22.481202,1.4961347 23.999999,1.4961347 Z" />
  <g
     id="g4429">
    <path
       d="m 33.500001,33.5 0,-6.02737 7,0 0,6.02737 6.007286,0 0,7 -6.007286,0 0,6.007286 -7,0 0,-6.007286 -6.007287,0 0,-7 6.007287,0 z"
       id="path2262"
       style="color:#000000;display:inline;overflow:visible;visibility:visible;fill:url(#radialGradient3343);fill-opacity:1;fill-rule:nonzero;stroke:none;stroke-width:0.98542732;stroke-linecap:round;stroke-linejoin:round;stroke-miterlimit:4;stroke-dasharray:none;stroke-dashoffset:0;stroke-opacity:1;marker:none;enable-background:accumulate" />
    <path
       style="display:inline;opacity:0.5;fill:none;stroke:url(#linearGradient3030-3);stroke-width:1;stroke-linecap:butt;stroke-linejoin:miter;stroke-miterlimit:4;stroke-dasharray:none;stroke-opacity:1"
       id="path2272-4"
       d="m 34.500001,35.459225 0,-6.959225 5,0 0,6.949866 m 0,3.095588 0,6.954546 -5,0 0,-6.954546" />
    <path
       style="display:inline;opacity:0.5;fill:none;stroke:url(#linearGradient3030-1);stroke-width:1;stroke-linecap:butt;stroke-linejoin:miter;stroke-miterlimit:4;stroke-dasharray:none;stroke-opacity:1"
       id="path2272-2"
       d="m 40,34.519929 5.499798,-0.01811 0,4.980302 L 40,39.500231 m -6,0 -5.500203,-0.01811 0,-4.980302 L 34,34.519929" />
    <path
       d="m 33.500001,33.5 0,-6.02737 7,0 0,6.02737 6.007286,0 0,7 -6.007286,0 0,6.007286 -7,0 0,-6.007286 -6.007287,0 0,-7 6.007287,0 z"
       id="path2262-2"
       style="color:#000000;clip-rule:nonzero;display:inline;overflow:visible;visibility:visible;opacity:0.5;isolation:auto;mix-blend-mode:normal;color-interpolation:sRGB;color-interpolation-filters:linearRGB;solid-color:#000000;solid-opacity:1;fill:none;fill-opacity:1;fill-rule:nonzero;stroke:#0f5a00;stroke-width:1;stroke-linecap:round;stroke-linejoin:round;stroke-miterlimit:4;stroke-dasharray:none;stroke-dashoffset:0;stroke-opacity:1;marker:none;color-rendering:auto;image-rendering:auto;shape-rendering:auto;text-rendering:auto;enable-background:accumulate" />
  </g>
</svg>

<svg xmlns="http://www.w3.org/2000/svg" xmlns:xlink="http://www.w3.org/1999/xlink" viewBox="0 0 48 48"><defs><linearGradient id="b"><stop offset="0" stop-color="#fff"/><stop offset=".139" stop-color="#fff" stop-opacity=".235"/><stop offset=".679" stop-color="#fff" stop-opacity=".157"/><stop offset="1" stop-color="#fff" stop-opacity=".392"/></linearGradient><linearGradient id="a"><stop offset="0" stop-color="#fff" stop-opacity=".275"/><stop offset="1" stop-color="#fff" stop-opacity="0"/></linearGradient><linearGradient id="c"><stop offset="0" stop-color="#fff3cb"/><stop offset=".262" stop-color="#fdde76"/><stop offset=".661" stop-color="#f9c440"/><stop offset="1" stop-color="#e48b20"/></linearGradient><linearGradient id="d"><stop offset="0"/><stop offset="1" stop-opacity="0"/></linearGradient><linearGradient gradientTransform="translate(2.98 -3.122)" gradientUnits="userSpaceOnUse" xlink:href="#a" id="j" y2="33.955" x2="15.215" y1="22.292" x1="11.566"/><linearGradient gradientUnits="userSpaceOnUse" xlink:href="#b" id="i" y2="36.325" x2="29.647" y1="16.237" x1="29.647"/><radialGradient gradientTransform="matrix(0 2.65406 -3.1628 0 97.183 -26.676)" gradientUnits="userSpaceOnUse" xlink:href="#c" id="h" fy="25.625" fx="13.139" r="13.931" cy="25.625" cx="13.139"/><radialGradient gradientTransform="matrix(2.1647 0 0 .84706 -111.565 35.082)" gradientUnits="userSpaceOnUse" xlink:href="#d" id="g" fy="4.625" fx="62.625" r="10.625" cy="4.625" cx="62.625"/><radialGradient gradientTransform="matrix(0 .95936 -1.04367 0 87.758 -35.866)" gradientUnits="userSpaceOnUse" xlink:href="#e" id="k" fy="48.745" fx="65.598" r="31" cy="48.745" cx="65.598"/><linearGradient id="e"><stop offset="0" stop-color="#cdf87e"/><stop offset=".262" stop-color="#a2e34f"/><stop offset=".661" stop-color="#68b723"/><stop offset="1" stop-color="#1d7e0d"/></linearGradient><linearGradient gradientTransform="matrix(.7045 0 0 .5952 21.24 23.22)" gradientUnits="userSpaceOnUse" xlink:href="#f" id="l" y2="36.594" x2="24.139" y1="9.712" x1="24.139"/><linearGradient id="f"><stop offset="0" stop-color="#fff"/><stop offset="0" stop-color="#fff" stop-opacity=".235"/><stop offset="1" stop-color="#fff" stop-opacity=".157"/><stop offset="1" stop-color="#fff" stop-opacity=".392"/></linearGradient><linearGradient gradientTransform="matrix(.60015 0 0 .69748 23.556 20.86)" gradientUnits="userSpaceOnUse" xlink:href="#f" id="m" y2="26.006" x2="24.139" y1="20.271" x1="24.139"/></defs><path d="M47 39c0 4.97-10.297 9-23 9S1 43.97 1 39s10.297-9 23-9 23 4.03 23 9z" opacity=".3" fill="url(#g)" fill-rule="evenodd" overflow="visible"/><path d="M24 1.496c1.52 0 6.415 12.276 7.644 13.172 1.23.895 14.375 1.776 14.844 3.226.47 1.45-9.65 9.916-10.12 11.366-.47 1.45 2.76 14.27 1.53 15.165-1.228.896-12.38-6.147-13.898-6.147-1.52 0-12.67 7.043-13.898 6.147-1.23-.896 2-13.715 1.53-15.165-.47-1.45-10.59-9.917-10.12-11.366.47-1.45 13.615-2.33 14.844-3.226C17.586 13.772 22.48 1.496 24 1.496z" fill="url(#h)" overflow="visible"/><path d="M24 2.5c2.256 4.317 4.478 8.952 6.734 13.27 4.844.79 10.262 1.38 14.77 2.505-3.45 3.458-6.875 7.13-10.325 10.59.736 4.804 1.3 9.696 2.036 14.5-4.388-2.18-8.863-4.27-13.25-6.45-4.39 2.18-8.776 4.36-13.164 6.538.738-4.805 1.125-9.87 1.863-14.677-3.45-3.458-6.73-7.084-10.18-10.542 4.843-.79 9.87-1.675 14.713-2.464 2.255-4.318 4.543-8.953 6.8-13.27z" opacity=".8" fill="none" stroke="url(#i)" stroke-linejoin="round" overflow="visible"/><path d="M24.024 2.022s4.502 7.47 7.02 13.317c4.845.79 10.31 1.402 14.916 2.72 0 0-2.464 2.466-3.48 3.486L10.696 27.26C7.8 24.283 4.51 21.395 1.96 18.048c3.553-1.076 10.13-1.943 14.976-2.733 3.356-7.903 7.087-13.293 7.087-13.293z" opacity=".8" fill="url(#j)" overflow="visible"/><path style="isolation:auto;mix-blend-mode:normal;filter-blend-mode:normal;filter-gaussianBlur-deviation:0" d="M24 1.496c1.52 0 6.415 12.276 7.644 13.172 1.23.895 14.375 1.776 14.844 3.226.47 1.45-9.65 9.916-10.12 11.366-.47 1.45 2.76 14.27 1.53 15.165-1.228.896-12.38-6.147-13.898-6.147-1.52 0-12.67 7.043-13.898 6.147-1.23-.896 2-13.715 1.53-15.165-.47-1.45-10.59-9.917-10.12-11.366.47-1.45 13.615-2.33 14.844-3.226C17.586 13.772 22.48 1.496 24 1.496z" overflow="visible" fill="none" stroke="#956500" stroke-linejoin="round" color="#000" opacity=".5"/><path d="M33.5 33.5v-6.027h7V33.5h6.007v7H40.5v6.007h-7V40.5h-6.007v-7H33.5z" color="#000" overflow="visible" fill="url(#k)"/><path d="M34.5 35.46V28.5h5v6.95m0 3.095V45.5h-5v-6.955" opacity=".5" fill="none" stroke="url(#l)"/><path d="M40 34.52l5.5-.018v4.98L40 39.5m-6 0l-5.5-.018v-4.98l5.5.018" opacity=".5" fill="none" stroke="url(#m)"/><path d="M33.5 33.5v-6.027h7V33.5h6.007v7H40.5v6.007h-7V40.5h-6.007v-7H33.5z" style="isolation:auto;mix-blend-mode:normal" color="#000" overflow="visible" opacity=".5" fill="none" stroke="#0f5a00" stroke-linecap="round" stroke-linejoin="round"/></svg>
